X:118
T:Walshe's Polka
R:polka
S:Matt Cranitch & Donal Murphy
H:Also played in A with parts in reverse order, #56
F:http://www.youtube.com/watch?v=7VGwMnppEOQ
Z:id:hn-polka-118
M:2/4
L:1/8
K:G
|: g2 gf/g/ | ag ge | dB BA | GA Bd | g2 gf/g/ | ag ge | dB BA |1 G2 G2 :|2 G2 D2 ||
|: G>A BA | GE ED | B,D ED | B,D ED | G>A BA | GE ED | B,D ED |1 G2 GD :|2 G2 G2 || 

